src/icons/iota/pick_a_wallet.svg

<svg width="30" height="22" viewBox="0 0 30 22" xmlns="http://www.w3.org/2000/svg">
<path class="icon-color-primary" fill-rule="evenodd" clip-rule="evenodd" d="M4.78293 4.01884C4.62509 2.2645 5.74548 0.598185 7.5051 0.126699C9.26471 -0.344788 11.0681 0.538086 11.8086 2.13631L12.7221 1.89155C15.5062 1.14555 18.3679 2.79777 19.1139 5.58188L20.893 12.2214C21.639 15.0055 19.9868 17.8672 17.2027 18.6132L8.35001 20.9853C5.5659 21.7313 2.70417 20.079 1.95817 17.2949L0.179126 10.6554C-0.566876 7.87133 1.08534 5.00961 3.86946 4.26361L4.78293 4.01884ZM10.7818 10.1765C10.4796 10.6958 9.8119 10.8747 9.29052 10.5761C8.76913 10.2775 8.59148 9.61449 8.89372 9.09521C9.19596 8.57593 9.86363 8.39703 10.385 8.69562C10.9064 8.99421 11.084 9.65722 10.7818 10.1765ZM5.03359 12.9749L4.67495 12.7695C3.54876 12.1245 3.56426 10.5029 4.70265 9.87139C5.21668 9.58625 5.84249 9.58907 6.35186 9.87883L9.42688 11.628C9.4972 11.668 9.52315 11.747 9.50381 11.8158C9.50331 11.8417 9.49652 11.8682 9.48234 11.8933L7.74442 14.9742C7.45654 15.4846 6.92124 15.8087 6.33371 15.8284C5.03255 15.8719 4.18532 14.489 4.81958 13.3569L5.03359 12.9749Z"/>
<path class="icon-color-primary" fill-rule="evenodd" clip-rule="evenodd" d="M16.2526 19.7961C15.9402 19.7961 15.635 19.7649 15.3402 19.7053L17.7401 19.0622C18.3738 18.8924 18.9527 18.6204 19.464 18.2686H25.4175C27.1047 18.2686 28.4725 16.9009 28.4725 15.2137H25.7994C23.9013 15.2137 22.3626 13.6749 22.3626 11.7768C22.3626 9.87869 23.9013 8.33996 25.7994 8.33996H28.4725C28.4725 6.65275 27.1047 5.28499 25.4175 5.28499H19.8406L19.789 5.09239C19.4962 3.99943 18.8992 3.06919 18.1135 2.36833C18.6192 1.37946 19.6481 0.702527 20.8351 0.702527C22.5223 0.702527 23.89 2.07029 23.89 3.7575H25.4175C27.9484 3.7575 30 5.80914 30 8.33996V15.2137C30 17.7445 27.9484 19.7961 25.4175 19.7961H16.2526ZM25.7994 9.86745H28.4725V13.6862H25.7994C24.7449 13.6862 23.89 12.8313 23.89 11.7768C23.89 10.7223 24.7449 9.86745 25.7994 9.86745Z"/>
</svg>

<svg xmlns="http://www.w3.org/2000/svg" viewBox="0 0 30 22">
  <path class="icon-color-primary" fill-rule="evenodd" clip-rule="evenodd" d="M4.783 4.019a3.692 3.692 0 0 1 7.026-1.883l.913-.244a5.219 5.219 0 0 1 6.392 3.69l1.779 6.64a5.219 5.219 0 0 1-3.69 6.391L8.35 20.985a5.219 5.219 0 0 1-6.392-3.69L.18 10.655a5.219 5.219 0 0 1 3.69-6.391l.914-.245Zm5.999 6.158c-.302.519-.97.698-1.491.4a1.079 1.079 0 0 1-.397-1.482c.302-.52.97-.698 1.491-.4.521.3.699.962.397 1.482Zm-5.748 2.798-.359-.205c-1.126-.646-1.11-2.267.028-2.899a1.685 1.685 0 0 1 1.649.008l3.075 1.749c.07.04.096.119.077.188a.163.163 0 0 1-.022.077l-1.738 3.081c-.287.51-.823.835-1.41.854-1.301.044-2.149-1.339-1.514-2.471l.214-.382Z"/>
  <path class="icon-color-primary" fill-rule="evenodd" clip-rule="evenodd" d="M16.253 19.796a4.65 4.65 0 0 1-.913-.09l2.4-.644a5.585 5.585 0 0 0 1.724-.793h5.954a3.055 3.055 0 0 0 3.055-3.055h-2.674a3.437 3.437 0 0 1 0-6.874h2.674a3.055 3.055 0 0 0-3.055-3.055H19.84l-.052-.193a5.568 5.568 0 0 0-1.676-2.724 3.055 3.055 0 0 1 5.777 1.39h1.527A4.582 4.582 0 0 1 30 8.34v6.874a4.582 4.582 0 0 1-4.582 4.582h-9.165Zm9.546-9.929h2.674v3.82h-2.674a1.91 1.91 0 0 1 0-3.82Z"/>
</svg>
